X:103
T: Hennecke Knecht
N: A0463
O: Europa, Mitteleuropa, Deutschland
N: Babst Gsgb. 1545 und Dresdner Cod. M. 53
R: Romanze, Ballade, Lied
M: 4/2
L: 1/4
K: D
D2 | =F2F2G2G2 | A2A2A2z
A | G2A2_B2A2 | G2=F2G2
G2 | A2A2=F2F2 | D4=C2z
A | A2AG=F2F2 | G2=F2G2z
A | =F2F2D2F2 | E4D2

